src/public/icons/rocket.svg

<svg width="30" height="30" viewBox="0 0 30 30" fill="none" xmlns="http://www.w3.org/2000/svg">
<path d="M9.77904 11.3419C9.77904 10.4721 9.88989 9.61938 10.1116 8.78372C10.4015 7.84574 10.7511 7.05271 11.1604 6.40465C11.655 5.68837 12.2093 5.11705 12.8232 4.6907C13.4713 4.23023 14.1961 4 14.9976 4C15.8162 4 16.5411 4.23023 17.1721 4.6907C17.786 5.11705 18.3403 5.68837 18.8348 6.40465C19.2442 7.05271 19.5938 7.84574 19.8837 8.78372C20.1054 9.61938 20.2162 10.4721 20.2162 11.3419V14.4628C20.2162 14.6333 20.2504 14.7953 20.3186 14.9488C20.4038 15.1023 20.5147 15.2217 20.6511 15.307L24.0023 17.814C24.2922 18.0186 24.4372 18.3085 24.4372 18.6837V22.8535C24.4372 23.1434 24.3263 23.3907 24.1046 23.5953C23.9 23.8 23.6527 23.9023 23.3628 23.9023H21.1116C20.8899 23.9023 20.6852 23.9705 20.4976 24.107C20.31 24.2264 20.1821 24.3884 20.1139 24.593C20.0286 24.8659 19.8581 25.1302 19.6023 25.386C19.193 25.7953 18.7069 26 18.1442 26H11.8511C11.2883 26 10.8023 25.7953 10.393 25.386C10.1542 25.1302 9.98369 24.8659 9.88136 24.593C9.81314 24.3884 9.68524 24.2264 9.49764 24.107C9.31004 23.9705 9.10539 23.9023 8.88369 23.9023H6.63252C6.3426 23.9023 6.08679 23.8 5.86508 23.5953C5.66043 23.3907 5.55811 23.1434 5.55811 22.8535V18.6837C5.55811 18.3085 5.70307 18.0186 5.99299 17.814L9.34415 15.307C9.48059 15.2217 9.58291 15.1023 9.65113 14.9488C9.7364 14.7953 9.77904 14.6333 9.77904 14.4628V11.3419ZM12.9 12.3651C12.9 12.962 13.1046 13.4651 13.5139 13.8744C13.9573 14.2837 14.4519 14.4884 14.9976 14.4884C15.5604 14.4884 16.055 14.2837 16.4814 13.8744C16.8907 13.4651 17.0953 12.962 17.0953 12.3651C17.0953 11.8023 16.8907 11.3163 16.4814 10.907C16.0721 10.4977 15.5775 10.293 14.9976 10.293C14.4178 10.293 13.9232 10.4977 13.5139 10.907C13.1046 11.3163 12.9 11.8023 12.9 12.3651Z" fill="#706B6D"/>
</svg>

<svg xmlns="http://www.w3.org/2000/svg" width="30" height="30" fill="none"><path fill="#706B6D" d="M9.779 11.342q0-1.305.333-2.558.436-1.407 1.048-2.38.743-1.074 1.663-1.713A3.67 3.67 0 0 1 14.998 4q1.227 0 2.174.69.92.64 1.663 1.715.614.971 1.049 2.379.332 1.253.332 2.558v3.12q0 .256.103.487a.96.96 0 0 0 .332.358l3.351 2.507q.435.307.435.87v4.17q0 .435-.332.741a1 1 0 0 1-.742.307h-2.251q-.333 0-.614.205a.9.9 0 0 0-.384.486q-.128.41-.512.793-.614.615-1.458.614h-6.293a2 2 0 0 1-1.458-.614 2.4 2.4 0 0 1-.512-.793.9.9 0 0 0-.383-.486 1.02 1.02 0 0 0-.614-.205H6.633q-.435 0-.768-.307a1 1 0 0 1-.307-.741v-4.17q0-.563.435-.87l3.351-2.507a.8.8 0 0 0 .307-.358 1 1 0 0 0 .128-.486zm3.121 1.023q0 .895.614 1.51.665.613 1.484.613.844 0 1.483-.614.614-.614.614-1.509 0-.844-.614-1.458a2.02 2.02 0 0 0-1.483-.614q-.87 0-1.484.614t-.614 1.458"/></svg>
